X:1
T:Recorder Sonata No. 6 in a-moll from 12 Trattenimenti armonici per camera Op. 6
T:Recorder Sonata No. 6 in a-moll
T:from 12 Trattenimenti armonici per camera Op. 6 Transcribed for Recorder and Bassocontinuo from IMSLP#435532 PDF File
T:Tomaso Albinoni (1671-1750) Heinrich Nikolaus Gerber (1702-1725)
T:Public Domain
T:Public Domain
T:Public Domain
T:Public Domain
T:Public Domain
T:Public Domain
T:Public Domain
C:Tomaso Albinoni (1671-1750)
Z:Public Domain
%%score [ 1 2 ] { ( 3 4 5 7 ) | ( 6 8 ) }
L:1/8
Q:1/4=60
M:4/4
K:C
V:1 treble nm="Alto Recorder" snm="A. Rec."
V:2 bass nm="Viola da gamba" snm="Vla. d. g."
V:3 treble nm="Harpsichord" snm="Hch."
V:4 treble 
V:5 treble 
V:7 treble 
V:6 bass 
V:8 bass 
V:1
"^1. Grave Adagio" e3 e (a/^g/) a2 e | (b/a/) b2 e d'/c'/d'- d'2- | d'e bc'/d'/ c'/b/a/g/ (f2 | %3
 f/)f/e/d/ e3 a d2- | d/e/c/d/ B>A A2 ac' | be e'2- e'/f/d'/c'/ d'2- | %6
 d'/g/c'/b/ c'2- c'/a/f/d/ B/a/g/f/ | ef g2- g/a/b/c'/ f2- | f/g/e/f/ d>c ce e2- | %9
 e^f f/^d/B/f/ g/=f/e/f/ g2- | ga a/^f/d/a/ b/a/g/a/ b2- | be a2- a/b/g/a/ ^f>e | %12
 eg/^f/ g2- g/=f/e/d/ ^c/B/A/g/ | gf/e/ f2- f/e/(d/c/) (B/A/)G/f/ | fe/d/ e2- e/d/c/B/ A/G/F/e/ | %15
 ed/c/ d2- d/c/B/A/ (^G/^F/E/)d/ | dc/B/ ca _b/(a/b/d/) b/(a/b/d/) | ^g^f/e/ a2- a/c'/b/a/ g>a | %18
 a2 z A (f/e/f/)A/ (e/d/e/)A/ | (f/e/f/)A/ (e/d/e/)A/ d2 cc' | %20
 (b/a/b/)e/ (c'/b/c'/)e/ (d'/c'/d'/)e/ (c'/b/c'/)e/ | b^gac B4 | !fermata!A8 || %23
[M:4/4][Q:1/4=114]"^2. Allegro" e | A/c/B/A/ A/c/B/A/ e/d/e z e | B/d/c/B/ e/^g/^f/e/ c'a z e | %26
 f/a/g/f/ f/a/g/f/ b/c'/b/a/ g/f/e/d/ | e/g/f/e/ e/g/f/e/ a/b/a/g/ f/e/d/c/ | %28
 d/f/e/d/ d/f/e/d/ ^g/a/g/^f/ e/d/c/B/ | c/e/d/c/ d/f/e/d/ e/^g/f/e/ ^f/a/g/f/ | %30
 ^g/b/a/g/ a/=g/f/e/ f/e/d/c/ B>A | A2 z A B/d/c/B/ B/d/c/B/ | cA z c d/f/e/d/ d/f/e/d/ | %33
 ec z e a/b/a/g/ f/e/d/c/ | d/f/e/d/ d/f/e/d/ g/a/g/f/ e/d/c/B/ | %35
 c/e/d/c/ c/e/d/c/ f/g/f/e/ d/c/B/A/ | B/d/c/B/ B/d/c/B/ e/f/e/d/ c/B/A/G/ | %37
 A/c/B/A/ f/c/B/A/ B/d/c/B/ g/d/c/B/ | c/e/d/c/ a/e/d/c/ d/f/e/d/ b/g/a/b/ | c'b/a/ g2- gf/e/ d2 | %40
 c2 z c c/e/d/c/ c/e/d/c/ | B/A/G z d d/f/e/d/ d/f/e/d/ | c/B/A z e e/g/^f/e/ e/g/f/e/ | %43
 ^d/^c/B z/ b/a/b/ ^g/b/a/g/ g/b/a/g/ | a/b/c'/b/ a/g/f/e/ ^f/a/g/f/ f/a/g/f/ | %45
 g/a/b/a/ g/^f/e/^d/ e/g/f/e/ e/g/f/e/ | ^f/g/a/g/ f/e/^d/^c/ d/f/e/d/ d/f/e/d/ | %47
 e/^f/e/B/ f/g/f/B/ g/a/g/B/ a/b/a/B/ | b2- b/a/b/^f/ g/a/b/c'/ f>e | e2 z e a/c'/b/a/ a/c'/b/a/ | %50
 a/b/g/a/ ^f2 e3 :: b | e/g/f/e/ e/g/^f/e/ b/a/b z (b | ^f/)a/g/f/ (e/^d/^c/)B/ ge z B | %54
 c/e/d/c/ c/e/d/c/ ^f/g/f/e/ d/c/B/A/ | B/d/c/B/ B/d/c/B/ e/^f/e/d/ c/B/A/G/ | %56
 A/c/B/A/ A/c/B/A/ ^d2- d/^f/e/f/ | ^d/^f/e/d/ d/f/e/d/ e/B/e/f/ e/=d/^c/B/ | %58
 ^c/e/d/c/ c/e/d/c/ d/A/d/e/ d/=c/B/A/ | B/d/c/B/ B/d/c/B/ c/G/c/d/ c/B/A/G/ | %60
 A/c/B/A/ f/e/d/c/ BA/G/ g2- | gf/e/ d2 c2 z c | c/e/d/c/ c/e/d/c/ B/A/G z G | %63
 d/f/e/d/ d/f/e/d/ c/B/A z A | e/d/c/B/ A/c/B/A/ ^G2 z/ e/d/e/ | %65
 ^c/e/d/c/ c/e/d/c/ d/e/f/e/ d/=c/B/A/ | B/d/c/B/ B/d/c/B/ c/d/e/d/ c/B/A/^G/ | %67
 A/c/B/A/ A/c/B/A/ B/c/d/c/ B/A/^G/^F/ | ^G/B/A/G/ G/B/A/G/ A/B/A/D/ B/c/B/E/ | %69
 c/d/c/E/ d/e/d/E/ e2- ee | ^f/g/f/d/ ^g/a/g/e/ a/a/g/f/ e2- | ed/c/ B2 A2 z e | %72
 f/a/g/f/ ^f/a/g/f/ g/b/a/g/ ^g/b/a/g/ | a/g/f/e/ ^d/^f/e/=d/ e2- e/d/c/B/ | c/d/e/f/ B>A A2 z :| %75
 z/8 |[M:3/4][Q:1/4=60]"^3. Adagio" c2 e2 d>c | g6- | g2 fefg | e3 gfe | d2 g>(f e/d/c/B/) | %81
 A2 a>(g f/e/d/c/) | B3 A/G/ c2- | c/(f/e/d/) e2 d>c | c6 | G2 B2 A>G | d6- | d2 c2 B>A | %88
 ^d2 ^cB b2 | (a/g/^f/e/) ^d3 e | e6 | e2 g2 f>e | f6- | fe/f/ de/f/ Bc/d/ | (e6 | %95
 e)d/e/ cd/e/ AB/c/ | d6- | dc/d/ Bc/d/ ^GA/B/ | cd (e4 | e)a d3 b | ^g3 ^f/e/ a2- | ab ^g3 a | %102
 a2 A2 e2- | ef d3 e | e6 |][M:2/4][Q:1/4=140]"^4. Vivace" (3AcB (3cBA | e2 z d/e/ | (3ced e>A | %108
 ^G2 z2 | (3^gba (3geg | (3aea (3g^cg | (3^fag (3fdf | (3gdg (3fcf | (3egf (3ece | (3fcf (3eAe | %115
 (3dfe (3dBd | (3eBe (3d^Gd | (3cBA (3dcB | (3edc (3fed | (3^gfe (3a=gf | (3edc B2 | A2 z A | %122
 (3Bdc (3dcB | (3cBA (3cde | (3dfe (3fed | (3edc (3efg | (3aba (3fga | (3Bdc (3Bcd | (3gag (3efg | %129
 (3AcB (3ABc | (3fag (3fed | (3bag c'2 | (3def b2 | (3cde a2- | (3ag^f (3gfe | (3^d^fe (3dfe | %136
 (3^fag (3fag | a4- | (3aba (3ga^f | b>^d e>a | g2 ^f2 | (3ebe' (3bge | (3bag ^f2 | e4 :: %144
 (3eg^f (3gfe | b3 a/b/ | (3gba b>e | ^d4 | (3^fag (3fga | (3^dag (3^fga | (3Bag (3^fgb | %151
 (3gba (3gab | (3eg^f (3efg | (3^cgf (3efg | (3Agf (3efg | (3fag (3fga | (3dfe (3def | %157
 (3Bdc (3Bcd | (3Gdc (3Bcd | (3egf (3efg | (3Aag (3fga | (3BAG g2- | (3gfe d2 | c2 z2 | %164
 (3ced (3edc | (3gGA (3BAG | (3dfe (3fed | (3aAB (3cBA | ^G2 z e | (3fag (3fga | (3def (3Bcd | %171
 (3egf (3efg | (3cde (3ABc | (3dfe (3def | (3Bcd (3^GAB | (3cBA (3dcB | (3edc (3fed | %177
 (3^g^fe (3a=g=f | (3edc B2 | A2 z e | (3fgf (3efe | (3aba (3ABA | (3fgf (3efe | (3aba (3ABA | %184
 d3 e/f/ | (3^G^FE A>d | c2 B2 | A4 :| %188
V:2
 A,2 A,G, F,2 F,E, | D,2 D,C, B,,2 B,,A,, | ^G,,2 z E, A,2 z A, | ^G,2 z G, ^F,2 z =F, | %4
 E,A,,E,E,, A,,A, A,2- | A,G,/F,/ G,F,/E,/ F,2- F,/F,/G,/F,/ | E,2- E,/E,/F,/E,/ D,3 G,, | %7
 C,2 z B,, A,,2 z D, | F,,C,G,G,, C,2 z G, | A,2 B,2 E,2 z B, | C2 D2 G,2 z E, | %11
 C2 z ^F, B,E,B,B,, | E,2 E,D, ^C,2 z A,, | D,2 D,C, B,,2 z B,, | C,2 C,B,, A,,2 z A,, | %15
 B,,2 B,,A,, ^G,,2 z G,, | A,,2 z C, D,2 z D, | D,2 C,D,/E,/ F,D,E,E,, | A,,B,,C,A,, D,2 C,2 | %19
 B,,2 C,A, B,/A,/B,/E,/ A,/^G,/A,/D,/ | E,2 E,2 E,2 E,2 | E,4 E,,4 | !fermata!A,,8 ||[M:4/4] z | %24
 z2 z A, C,/^G,/^F,/E,/ E,/G,/F,/E,/ | EE, z E, A,/C/B,/A,/ A,/C/B,/A,/ | DD, z D, G,G,, z G, | %27
 CC, z C, F,F,, z F, | B,B,, z B,, E,E,, z E, | A,A,, B,,2 C,2 D,2 | E,2 C,2 D,2 E,E,, | %31
 A,/C/B,/A,/ A,/C/B,/A,/ EE, z E, | A,/C/B,/A,/ A,/C/B,/A,/ B,G, z G, | %33
 C,/E,/D,/C,/ C,/E,/D,/C,/ F,F,, z F, | B,2 z B, EE, z E | A,2 z A, DD, z D | G,,2 z G, CC, z E, | %37
 F,2 z D, G,2 z E, | A,2 z F, B,,D,G,F, | E,2 E,D,/C,/ B,,C,G,G,, | %40
 C,/E,/D,/C,/ C,/E,/D,/C,/ CC, z C, | G,/B,/A,/G,/ G,/B,/A,/G,/ F,D, z D, | %42
 A,/C/B,/A,/ A,/C/B,/A,/ G,E, z E, | B,/^D/^C/B,/ B,/D/C/B,/ E2 =D2 | C2 z A, D2 C2 | %45
 B,2 z B, C2 B,2 | A,2 z F, B,2 A,2 | G,2 ^D,2 E,2 ^F,2 | G,E,^D,B,, E,A,B,B,, | %49
 E,/G,/^F,/E,/ E,/G,/F,/E,/ C2 F,2 | B,E,B,B,, E,3 :: z | z2 z E, B,,/^D,/^C,/B,,/ B,,/D,/C,/B,,/ | %53
 B,B,, z B,, E,/G,/^F,/E,/ E,/G,/F,/E,/ | A,A,, z A, DD, z D, | G,G,, z G, CC, z C | %56
 ^F,^F,, z F, B,/^D/^C/B,/ B,/D/C/B,/ | B,2 A,2 ^G,2 z E, | A,2 G,2 ^F,2 z B, | G,2 F,2 E,2 z C, | %60
 F,2 z F, G,F, E,D,/C,/ | B,,C,G,G,, C,/E,/D,/C,/ C,/E,/D,/C,/ | %62
 CC, z C, G,/B,/A,/G,/ G,/B,/A,/G,/ | F,D, z D, A,/C/B,/A,/ A,/C/B,/A,/ | %64
 ^G,E,F,D, E,/G,/F,/E,/ E,/G,/F,/E,/ | A,2 G,2 F,2 z D, | G,2 F,2 E,2 z E, | F,2 E,2 D,2 z B,, | %68
 E,2 D,2 C,2 ^G,,2 | A,,A, B,2 C/D/E/D/ C/B,/C/A,/ | D2 E2 C2 z/ C/B,/A,/ | %71
 ^G,A,EE, A,/C/B,/A,/ A,/C/B,/A,/ | D2 C2 B,2 E2 | CA, B,2 ^G,/B,/A,/G,/ G,/B,/A,/G,/ | %74
 A,D,E,E,, A,,2 z :| z/8 |[M:3/4] z6 | G,2 B,2 A,>G, | A,4 B,2 | C,2 E,2 D,>C, | G,2 G,,2 G,2- | %81
 G,2 F,4 | F,4 E,2 | F,2 G,2 G,,2 | C,2 E,2 D,>C, | F,6 | ^G,2 B,2 A,>G, | A,6 | A,4 G,2 | %89
 A,2 B,2 B,,2 | E,2 G,2 ^F,>E, | ^C4 A,2 | D,2 F,2 E,>D, | G,4 G,,2 | C,2 E,2 D,>C, | F,4 F,2 | %96
 B,,2 D,2 C,>B,, | E,4 E,2 | A,,2 C,2 B,,>A,, | F,4 D,2 | E,4 F,2 | D,2 E,2 E,,2 | A,,4 G,,2 | %103
 F,,6 | E,,6 |][M:2/4] A,2 z2 | (3(E,^G,^F,) (3G,F,E, | A,2 A,,2 | E,2 z2 | E,4 | ^C,2 z2 | %111
 D,2 z2 | B,,2 z2 | C,2 z2 | A,,2 z2 | B,,2 z2 | ^G,,2 z2 | A,,2 B,,2 | C,2 D,2 | E,2 F,2 | %120
 C,>D, E,>E,, | (3A,CB, (3CB,A, | ^G,2 z2 | A,2 z2 | B,2 z2 | C2 z2 | F,2 z2 | D,2 z2 | E,2 z2 | %129
 C,2 z2 | D,2 z2 | G,2 (3E,D,E, | (3F,E,D, (3G,F,G, | E,2 (3^F,E,F, | ^D,2 E,2 | B,,2 z2 | %136
 B,,2 z2 | (3^D,^F,E, (3D,E,F, | B,,2 E,>^F, | G,3 A, | B,2 B,,2 | E,2 z2 | G,,>A,, B,,2 | E,4 :: %144
 E,2 z2 | (3B,,^D,^C, (3D,C,B,, | E,2 E,,2 | B,,2 z2 | B,,2 z2 | B,,2 z2 | ^D,2 z2 | E,2 z2 | %152
 E,2 z2 | A,2 z2 | ^C,2 z2 | D,2 z2 | F,2 z2 | G,2 z2 | B,2 z2 | C2 C,2 | F,2 D,2 | G,2 (3E,D,C, | %162
 B,,>C, G,>G,, | C,4 | C,2 C2 | B,>A, G,2 | F,2 D,2 | C,>B,, A,,2 | E,2 C,2 | D,2 z2 | B,,2 G,2 | %171
 C,2 z2 | A,,2 F,2 | B,,2 z2 | ^G,,2 E,2 | A,,2 B,,2 | C,2 D,2 | E,2 F,2 | C,>D, E,>E,, | %179
 A,,2 C,2 | D,2 E,2 | F,2 C,2 | D,2 E,2 | F,2 C,2 | (3B,,D,C, (3B,,C,D, | E,2 F,>D, | E,2 E,,2 | %187
 A,,4 :| %188
V:3
 [Ac]2 [Ac][Be-]ed c2 | B2 Bc d2 d2 | d2 z [^Gd] [Ac]2 z [Ac] | [Bd]2 z [Be-] [ce]2 z ([Ad] | %4
 dc) B2 [Ac][^GB] [Ac]2 | de e2 e2 d2 | d2 c2 c2 B2 | [Gc]2 z [Gd] [Gc]2 z D | Bc G2 c2 z [GB] | %9
 c2 BA [EG][GB]e=d | e2 dc [GB]2 z [Be] | e2 z e ^d e2 d | e2 e/d/^c/d/ [Ae]2 z [Ae-] | %13
 ed/^c/ d2 [Gd]2 z [Gd-] | dc/B/ cc [Fc]2 z c- | c B/A/ BB B2 z B- | BA/^G/ AA _B2 z B/A/ | %17
 ^G2 A2- A2- AG | A^G A2 A4 | [FA][Ad] [Ae][A-c] [Ad][^GB-] B[^FA] | [E^G]2 [EA]2 [GB]2 [EA]2 | %21
 [E^G]2 E6 | A8 ||[M:4/4] e | A/c/B/A/ A[Ac] [^GB][Be][GB][Be] | [Bd]2 z [Bd] [Ac][ce][Ac][c-e] | %26
 [cf]2 z [cf-] [Bf]2 z [Bf] | [Be]2 z [Be-] [Ae]2 z [A-e] | [Ad]2 z [Ad-] [^Gd]2 z [Gd] | %29
 ce d2 [Bd][Ac]cB | [^GB]2 A2 cB AG | [Ac][ce][Ac][ce] [Be]2 z [Be] | [Ac][ce] [Ac]2 d2 z [Bd] | %33
 [ce][eg] [ce-]2 [ce]2 z [ce] | [Bd]2 z [Bd-] [Bd]2 z [Bd] | [Ac]2 z G F2 z F- | %36
 F2 z [GB] [Gc]2 z [Gc] | A2 z [A-d] AG z [Be] | c2 z [Ad] [Gd][Ac] [GB]2 | cBcB/c/ d c2 B | %40
 [Gc][ce][Gc][ce] [Gc]2 z [Gc] | [GB][Bd] [GB]2 [Ad]2 z [Ad] | [Ac][ce] [Ac]2 [Be]2 z [Be] | %43
 [B^d][df][Bd][df] [Be]4 | [ce]2 z [ce] [Ad]2 [Ad]2 | [Bd]2 z [A^d] e4 | %46
 [ce]2 z [^ce] [B^d]2 [Bd]2 | [Be]2 [B^f-]2 f e2 ^d | e2 ^f^d e2- ed | [Be][eg] [Be]2 e2 e^d/e/ | %50
 ^de-ed [Be]3 :: B | z2 z [Be] [B^d][d^f][Bd][df] | [B^d]2 z [Bd] [Be][eg][Be][eg] | %54
 [eg]2 z [eg] [d^f]2 z [df-] | [df]2 z [d^f]2 z2 [ce-] | [Ace]2 z [ce] [B^d]2 [Bd]2 | %57
 [B^d]2- [Bd]2 [Be]2 z [B=d] | [A^c]4 [Ad]2 z [A=c] | [GB]4 [Gc]2 z [Gc] | [Ac]2 z [Ac] [GB]2 c2 | %61
 dccB [Gc]c[Gc][ce] | [Gc]2 z [Gc] [GB][Bd][GB][Bd] | [Ad]2 z [Ad] [Ac][ce][Ac][ce] | %64
 BccB [^GB][Be][GB][Be] | [A^c]4 [Ad]2 z [A=c] | [GB]4 [Gc]2 z [GB] | [FA]4 [FB]2 z [FA] | %68
 [E^G]4 A2 B2 | [EA][Ac] [^Gd]2 e2 [ce]2- | [ce](c [Bd]2) dc z [EAe] | e2 e2 e4 | %72
 [cf][Bd] [Ad]2 d=f-fe | [Ace]2 [B^d]2 e=ded | cc/B/ B2 A3 :| z/8 x/4 |[M:3/4] c2 e2 d>c | %77
 [Bd]2 [dg-]4 | g2 f4 | e4 [Bf][c-e] | d2 d2 ed | [Ac]2 A4 | B6 | A2 G4 | [Gc]6 | [GB]2 [Bd-]4 | %86
 d6- | d2 c4 | [^FB]4 [GB]2 | [Gc]2 ^FG A2 | [GB]2 [Be]4 | e4 d^c | d4 c2 | B2 B2 [Bd-]2 | %94
 d2 c2 [GB]2 | [FA]4 [Ac]2- | ([Ac]2 B)c [Ad-]2 | [^Gd]4 [Gd]2 | [Ac]2 [EA]2 [GA]2 | A4 BA | %100
 ^G4 [CA]2 | A2- A2 ^G2 | [EA]4 [EB]2 | A6 | [B,E^G]6 |][M:2/4] [Ac]2 z2 | [Be]2 [B-e]2 | %107
 [Bc]2 [Ac]2 | [^GB]2 z2 | [^GB]2 z2 | [Ae]2 z2 | [D^FA]2 z2 | [Gd]2 z2 | [DG]2 z2 | [FA]2 z2 | %115
 ^G2 z2 | [EB]2 z2 | A2 ^G2 | A4 | ^G2 A2 | A2 [E^G][GB] | [Ac]2 [Ac]2 | [Bd]2 z2 | [Ac]2 z2 | %124
 [Gd]2 z2 | [Gc]2 z2 | [Ac]2 z2 | B2 z2 | [GB]2 z2 | A2 z2 | [FA]2 [Ad]2 | B2 c2- | [Ac]2 [GB-]2 | %133
 C4 | B,4 | [^D^F]2 z2 | [^D^FA]2 z2 | A4- | [^DA]2 G>A | B2- B>c | [GB]2 [^D^FB]2 | [GB]2 z2 | %142
 B>c [^FB]2 | [EGB]4 :: [GB]2 z2 | B2 B>A | [EG]2 [GB]2 | [^D^FB]2 z2 | [^FA]2 z2 | [^FA]2 z2 | %150
 [^FA]2 z2 | [EG]2 [GB]2 | e2 d2 | ^c2 z2 | e2 z2 | [Ad]2 z2 | [Ad]2 z2 | B2 z2 | d2 z2 | %159
 [Gc]2 [ce-]2 | [Ae]2 d>c | B2 c2 | d>c- c>B | [EGc]4 | [Gc]4 | d>cB>c | [Ad]2 [Ad]2 | e>d c2 | %168
 [^GB]2 [Ae-]2 | [Ae]2 d>c | [Gd]2 [Bd-]2 | [Gd]2 c>B | c4- | [Ac]2 [^GB]>[^FA] | B2 ^G2 | A2 ^G2 | %176
 A4 | ^G2 A2 | A2 A>^G | [EA-]4 | A4 | A4 | A4 | A4 | ^G>A B>A | ^G2 A2 | A2 ^G2 | [EA]4 :| %188
V:4
 E2 E2 F2 F2 | [FA]2 E2 D2 D/E/F | B2 x5 F | F2 x E A2 x D | E4 ED E2 | FEEG A2 D2 | E4 F4 | %7
 E2 x D E2 x [F-c] | D C D2 E2 x E | G^F F2 B,EGG | G2 A2 D2 x G | G2 x ^F FE F2 | G2 x5 G- | %13
 GF/E/ F2- F2 x F- | FE/D/ E2- E2 x E- | ED/C/ D2- D2 x D- | DC/B,/ CA, D2 x D/C/ | B,2 x4 [B,E]2 | %18
 CDC^C D2 A,2 | DF EE D2 [CE]2 | B,2 C2 D2 C2 | B,2 C2 B,4 | [CE]8 ||[M:4/4] x | x3 E E^GEG | %25
 ^G2 x G EAE[Ac] | A2 x A G2 x G | G2 x G F2 x F | F2 x F E2 x E | [EA][Ac] A^G/^F/ E2 [FA]2 | %30
 FE E2 =F2 E2 | EAEA ^G2 x G | EA E2 DG x G | Gc G2 x3 A | A2 x A G2 x G | %35
 G2 x [Ac-] [Ac]2 x [Ac] | [GB]2 x F E2 x C | x3 F [DB]2 x G | E2 x F- F2- FE/D/ | CD E2 FE D2 | %40
 EGEG E2 x E | DG D2 DF x F | EA E2 EG x G | ^FBFB ^G4 | A2 x G ^F2 F2 | G2 x ^F E>F G2 | %46
 ^F2 x A F2 F2 | G2 A2 G2 ^F2 | EG A2 G2 ^F2 | GB G2 E2 A2 | AG ^F2 G3 :: x | E/G/^F/E/ EG FBFB | %53
 F2 x F GBGB | c2 x c- c2 x c | B2 x B- B2 x B | x3 A- x4 | AG ^F2 E2 x ^G | E4 D2 x ^F | %59
 D4 C2 x E | F2 x D D2 E2 | FE D2 EGEG | E2 x E DGDG | DF x F EAEA | E^GAF EGEG | E4 D2 x F | %66
 D4 C2 x D | C4 D2 x D | B,4 C2 D2 | CE- [E^G]2 EA A2 | ^F2 x2 [EA]2 x2 | EA- A^G A2 =G2 | %72
 F2 ^F2 G2 ^G2 | AG ^F2 E^G E2- | EF E>D C3 :| x3/8 |[M:3/4] x6 | G4 B2 | [Ac]4 G2 | G4 G2 | %80
 G4 GF | E2 F2 E2 | G4 c2 | E4 D2 | E2 C2 E2 | D2 G2 F2 | E6 | A4 G2 | ^D4 E2 | E2 ^D2 x2 | %90
 E4 G2- | G4 FE | F2 D2 F2- | F6 | E4 E2- | E4- E2 | D2 F2 F2 | x4 E2 | E2 C2 E2- | F6 | E3 D A,2 | %101
 B,2 B,4 | x4 B,2 | C4 B,A, | x6 |][M:2/4] E2 x2 | ^G2 E>G | E2 E2 | E2 x2 | E2 x2 | E2 x2 | %111
 D2 x2 | D2 x2 | D2 x2 | C2 x2 | [DF]2 x2 | D2 x2 | E4 | E2 F2 | B,2 A,>B, | C>B, B,E | E2 E2 | %122
 E2 x2 | E2 x2 | D2 x2 | E2 x2 | F2 x2 | [FA]2 x2 | E2 x2 | [EG]2 x2 | D2 F2- | F2 E2 | D4 | %133
 [GB]2 [^DA-]2 | [^FA]2 [EG]2 | [B,^D]2 x2 | x4 | B,4 | B,4 | B,2 E2 | E2 ^D2 | E2 x2 | E2- E>^D | %143
 x4 :: E2 x2 | ^D2 B,>D | B,2 E2 | ^D2 x2 | ^D2 x2 | ^D2 x2 | B,2 x2 | B,2 E2 | [GB]2 x2 | %153
 [GA]2 x2 | [GA]2 x2 | F2 x2 | F2 x2 | [FG]2 x2 | [FG]2 x2 | E2 G2- | G2 [F-A]2 | F2 E2 | F>E D2 | %163
 x4 | E4 | [DG]4 | D2 F2 | [EA]4 | E2 E2 | [FA]2 x2 | F4 | E2 x2 | E4 | D2 x2 | [DE]4 | E4 | %176
 E2 F2 | B,2 A,>B, | C2 B,2 | C2 A,2 | F2 E2 | (D2 E2 | F2) E2 | D2 E2 | x2 D>C | B,2 A,>B, | E4 | %187
 x4 :| %188
V:5
 x4 BB/^G/ A2 | x2 ^GA AG/F/ GA | E2 x E F2 x2 | x8 | ^GA AG x4 | B2 Bc c2 A2 | G4 A2 G2 | x8 | %8
 FE/F/ x B x4 | E2 ^D2 x2 BB- | BA ^F2 x4 | B2 x A- AG/A/ B2 | B2 B_B x4 | A4 x4 | G4 x2 z F | %15
 F4 x3 E | E4 F2 x F | E2 ED CF x2 | x2 E=G F2 E2 | x8 | x8 | x2 A4 ^G2 | x8 ||[M:4/4] x | x8 | %25
 x8 | x8 | x8 | x8 | x2 cB x4 | x2 c2 x4 | x8 | x4 GB x2 | x8 | x8 | x8 | x8 | GF x6 | BA x6 | %39
 G4 G4 | x8 | x8 | x8 | x8 | x8 | x4 GB/A/ B2 | x8 | x4 B2 A2 | B4- Bc B2 | x4 AB c2 | B4 x3 :: x | %52
 x8 | x8 | x8 | x4 [ce]2 x2 | x8 | x8 | x8 | x8 | x6 G2- | G4 x4 | x8 | x8 | e2 ed x4 | x8 | x8 | %67
 x8 | x4 E4- | x4 Ac x2 | x8 | Bc B2 c4 | x4 Bd-dc/B/ | x8 | BA- A^G x3 :| z/8 |[M:3/4] x6 | x6 | %78
 x4 d2- | x6 | c2 B4 | x4 c2 | D4 E2- | x4 B2 | x6 | x6 | B2 ^G2 B2 | E6 | x6 | x6 | x6 | A6 | A6 | %93
 G4 x2 | G4 x2 | x6 | x2 ^G2 x2 | x6 | x6 | E2 D4- | D2 CB, x2 | F2 E4 | x6 | E4 D2 | x6 |] %105
[M:2/4] x4 | x4 | x4 | x4 | x4 | x4 | x4 | x4 | x4 | x4 | x4 | x4 | C2 D2 | C2 B,2 | E>D C>D | %120
 E>F x2 | x4 | x4 | x4 | x4 | x4 | x4 | x4 | x4 | x4 | x4 | G4 | x4 | x4 | x4 | x4 | x4 | ^F2 F>E | %138
 x2 E2 | E>^F G2 | x4 | x4 | G2 x2 | x4 :: x4 | ^F4 | x4 | x4 | x4 | x4 | x4 | x4 | x4 | x4 | x4 | %155
 x4 | x4 | x4 | x4 | x4 | x4 | G4 | G4 | x4 | x4 | x4 | x4 | x4 | x4 | x4 | x4 | x4 | F2 A2- | x4 | %174
 x4 | C2 D2 | C2 B,2 | E>D C>D | E>F E2 | x4 | D2 C2 | A,2 C2 | B,2 C2 | A,2 C2 | D2 x2 | E>D C>F | %186
 C2 B,2 | x4 :| %188
V:6
 A,2 A,G, F,2 F,E, | D,2 D,C, B,,2 B,, A,, | ^G,,2 z E, A,2 z A, | ^G,2 z =G, ^F,2 z =F, | %4
 E,A,,E,E,, A,,A, A,2- | A,G,/F,/ G,F,/E,/ F,2 F,/F,/G,/F,/ | E,2- E,/E,/F,/E,/ D,3 G,, | %7
 C,2 z B,, A,,2 z D, | G,,C,G,G,, C,2 z G, | A,2 B,2 E,2 z B, | C2 D2 G,2 z E, | %11
 C2 z ^F, B,E, B,B,, | E,2 E,D, ^C,2 z C, | D,2 D,=C, B,,2 z B,, | C,2 C,B,, A,,2 z A,, | %15
 B,,2 B,,A,, ^G,,2 z G,, | A,,2 z C, D,2 z D, | D,2 C,D,/E,/ F,D, E,E,, | A,,B,,C,A,, D,2 C,2 | %19
 D,2 C,A, (B,/A,/B,/)E,/ (A,/^G,/A,/)^D,/ | E,2 E,2 E,2 E,2 | E,4 E,4 | A,,8 ||[M:4/4] z | %24
 z2 z A, E,/^G,/^F,/E,/ E,/G,/F,/E,/ | EE, z E, A,/C/B,/A,/ A,/C/B,/A,/ | DD, z D, G,G,, z G, | %27
 CC, z C, F,F,, z F, | B,B,, z B,, E,E,, z E, | A,A,, B,,2 C,2 D,2 | E,2 C,2 D,2 E,E,, | %31
 A,/C/B,/A,/ A,/C/B,/A,/ EE, z E, | A,/C/B,/A,/ A,/C/B,/A,/ B,A, z G, | %33
 C,/E,/D,/C,/ C,/E,/D,/C,/ F,F,, z F, | B,,2 z B,, E,E,, z E, | A,,2 z A,, D,D,, z D, | %36
 G,,2 z G, CC, z E, | F,2 z D, G,2 z E, | A,2 z F, B,,D,G,F, | E,2 E,D,/C,/ B,,C,A,G,, | %40
 C,/E,/D,/C,/ C,/E,/D,/C,/ CC, z C, | G,/B,/A,/G,/ G,/B,/A,/G,/ F,D, z D, | %42
 A,/C/B,/A,/ A,/C/B,/A,/ G,E, z E, | B,/^D/^C/B,/ B,/D/C/B,/ E2 =D2 | C2 z A, D2 C2 | %45
 B,2 z B, C2 B,2 | A,2 z ^F, B,2 A,2 | G,2 ^D,2 E,2 ^F,2 | G,E,^D,G,, E,A,B,B,, | %49
 E,/G,/^F,/E,/ E,/G,/F,/E,/ C2 F,2 | B,E,B,B,, E,3 :: z | z2 z E, B,,/^D,/^C,/B,,/ B,,/D,/C,/B,,/ | %53
 B,B,, z B,, E,/G,/^F,/E,/ E,/G,/F,/E,/ | A,A,, z A, DD, z D, | G,G,, z G, CC, z C | %56
 ^F,^F,, z F, B,/^D/^C/B,/ B,/D/C/B,/ | B,2 A,2 z4 | A,2 =G,2 ^F,2 z D, | G,2 =F,2 E,2 z C, | %60
 F,2 z F, G,F, E,D,/C,/ | B,,C, G,G,, C,/E,/D,/C,/ C,/E,/D,/C,/ | %62
 CC, z C, G,/B,/A,/G,/ G,/B,/A,/G,/ | F,D, z D, A,/C/B,/A,/ A,/C/B,/A,/ | %64
 ^G,E, F,D, (E,/G,/^F,/)E,/ E,/G,/F,/E,/ | A,2 =G,2 =F,2 z D, | G,2 F,2 E,2 z E, | %67
 F,2 E,2 D,2 z B,, | E,2 D,2 C,2 ^G,,2 | A,,A, B,2 C/D/E/D/ C/B,/C/A,/ | D2 E2 C2 z/ C/B,/A,/ | %71
 ^G,A,EE, A,/C/B,/A,/ A,/C/B,/A,/ | D2 C2 B,2 E2 | CA, B,2 ^G,/B,/A,/G,/ G,/B,/A,/G,/ | %74
 A, D, E,E,, A,,3 :| x/4 z/8 |[M:3/4] z6 | G,2 B,2 A,>G, | A,4 B,2 | C,2 E,2 D,>C, | %80
 G,2 G,,2 G,2- | G,2 F,4 | F,4 E,2 | F,2 G,2 G,,2 | C,2 E,2 D,>C, | G,6 | ^G,2 B,2 A,>G, | A,6 | %88
 A,4 G,2 | A,2 B,2 B,,2 | E,2 G,2 ^F,>E, | ^C4 A,2 | D,2 F,2 E,>D, | G,4 G,,2 | C,2 E,2 D,>C, | %95
 F,4 F,2 | B,,2 D,2 C,>B,, | E,4 E,2 | A,,2 C,2 B,,>A,, | F,4 D,2 | E,4 F,2 | D,2 E,2 E,,2 | %102
 A,,4 G,,2 | F,,6 | E,,6 |][M:2/4] A,2 z2 | (3(E,^G,^F,) (3G,F,E, | A,2 A,,2 | E,2 z2 | E,2 z2 | %110
 ^C,2 z2 | D,2 z2 | B,,2 z2 | C,2 z2 | A,,2 z2 | B,,2 z2 | ^G,,2 z2 | A,,2 B,,2 | C,2 D,2 | %119
 E,2 F,2 | C,>D, E,>E,, | (3A,CB, (3CB,A, | ^G,2 z2 | A,2 z2 | B,2 z2 | C2 z2 | F,2 z2 | D,2 z2 | %128
 E,2 z2 | C,2 z2 | D,2 z2 | G,2 (3E,D,E, | (3F,E,D, (3G,F,G, | E,2 (3^F,E,F, | ^D,2 E,2 | B,,2 z2 | %136
 B,,2 z2 | (3^D,^F,E, (3D,E,F, | B,,2 E,>^F, | G,3 A, | B,2 B,,2 | E,2 z2 | G,,>A,, B,,2 | E,4 :: %144
 E,2 z2 | (3B,,^D,^C, (3D,C,B,, | E,2 E,,2 | B,,2 z2 | B,,2 z2 | B,,2 z2 | ^D,2 z2 | E,2 z2 | %152
 E,2 z2 | A,2 z2 | ^C,2 z2 | D,2 z2 | F,2 z2 | G,2 z2 | B,2 z2 | C2 C,2 | F,2 D,2 | G,2 (3E,D,C, | %162
 B,,>C, G,>G,, | C,4 | C,2 C2 | B,>A, G,2 | F,2 D,2 | C,>B,, A,,2 | E,2 C,2 | D,2 z2 | B,,2 G,2 | %171
 C,2 z2 | A,,2 F,2 | B,,2 z2 | ^G,,2 E,2 | A,,2 B,,2 | C,2 D,2 | E,2 F,2 | C,>D, E,>E,, | %179
 A,,2 C,2 | D,2 E,2 | F,2 C,2 | D,2 E,2 | F,2 C,2 | (3B,,D,C, (3B,,C,D, | E,2 F,>D, | E,2 E,,2 | %187
 A,,4 :| %188
V:7
 x8 | x8 | x8 | x8 | x8 | x8 | x8 | x8 | x8 | x8 | x8 | x8 | x2 G2- G2 x2 | x8 | x8 | x8 | x8 | %17
 x2 CB, A,B, x2 | x8 | x8 | x8 | x8 | x8 ||[M:4/4] x | x8 | x8 | x8 | x8 | x8 | x8 | x6 B2 | x8 | %32
 x8 | x8 | x8 | x8 | x8 | C2 x6 | x8 | x8 | x8 | x8 | x8 | x8 | x8 | x8 | x8 | x8 | x8 | x8 | x7 :: %51
 x | x8 | x8 | x8 | x8 | x4 A4- | x8 | x8 | x8 | x8 | x8 | x8 | x8 | x8 | x8 | x8 | x8 | x8 | x8 | %70
 x8 | x8 | x8 | x8 | x7 :| x3/8 |[M:3/4] x6 | x6 | x6 | d2 c2 x2 | x6 | x6 | x6 | x6 | x6 | x6 | %86
 x6 | x6 | x6 | x6 | x6 | x6 | x6 | x6 | x6 | x6 | x6 | x6 | x6 | x6 | x6 | x6 | x6 | x6 | x6 |] %105
[M:2/4] x4 | x4 | x4 | x4 | x4 | x4 | x4 | x4 | x4 | x4 | x4 | x4 | x4 | x4 | x4 | x4 | x4 | x4 | %123
 x4 | x4 | x4 | x4 | x4 | x4 | x4 | x4 | x4 | x4 | x4 | x4 | x4 | x4 | x4 | x4 | x4 | x4 | x4 | %142
 x4 | x4 :: x4 | x4 | x4 | x4 | x4 | x4 | x4 | x4 | x4 | x4 | x4 | x4 | x4 | x4 | x4 | x4 | x4 | %161
 x4 | x4 | x4 | x4 | x4 | x4 | x4 | x4 | x4 | x4 | x4 | x4 | x4 | x4 | x4 | x4 | x4 | x4 | x4 | %180
 x4 | x4 | x4 | x4 | F4 | x4 | x4 | x4 :| %188
V:8
 x8 | x8 | x8 | x8 | x8 | x8 | x8 | x8 | x8 | x8 | x8 | x8 | x8 | x8 | x8 | x8 | x8 | x8 | x8 | %19
 x8 | x8 | x8 | x8 ||[M:4/4] x | x8 | x8 | x8 | x8 | x8 | x8 | x8 | x8 | x8 | x8 | x8 | x8 | x8 | %37
 x8 | x8 | x8 | x8 | x8 | x8 | x8 | x8 | x8 | x8 | x8 | x8 | x8 | x7 :: x | x8 | x8 | x8 | x8 | %56
 x8 | x4 ^G,2 x E, | x8 | x8 | x8 | x8 | x8 | x8 | x8 | x8 | x8 | x8 | x8 | x8 | x8 | x8 | x8 | %73
 x8 | x7 :| x3/8 |[M:3/4] x6 | x6 | x6 | x6 | x6 | x6 | x6 | x6 | x6 | x6 | x6 | x6 | x6 | x6 | %90
 x6 | x6 | x6 | x6 | x6 | x6 | x6 | x6 | x6 | x6 | x6 | x6 | x6 | x6 | x6 |][M:2/4] x4 | x4 | x4 | %108
 x4 | x4 | x4 | x4 | x4 | x4 | x4 | x4 | x4 | x4 | x4 | x4 | x4 | x4 | x4 | x4 | x4 | x4 | x4 | %127
 x4 | x4 | x4 | x4 | x4 | x4 | x4 | x4 | x4 | x4 | x4 | x4 | x4 | x4 | x4 | x4 | x4 :: x4 | x4 | %146
 x4 | x4 | x4 | x4 | x4 | x4 | x4 | x4 | x4 | x4 | x4 | x4 | x4 | x4 | x4 | x4 | x4 | x4 | x4 | %165
 x4 | x4 | x4 | x4 | x4 | x4 | x4 | x4 | x4 | x4 | x4 | x4 | x4 | x4 | x4 | x4 | x4 | x4 | x4 | %184
 x4 | x4 | x4 | x4 :| %188

